svgs/sharp-regular/quotes.svg

<svg xmlns="http://www.w3.org/2000/svg" viewBox="0 0 576 512"><!--! Font Awesome Pro 6.6.0 by @fontawesome - https://fontawesome.com License - https://fontawesome.com/license (Commercial License) Copyright 2024 Fonticons, Inc. --><path d="M0 96C0 43 43 0 96 0l8 0 24 0 0 48-24 0-8 0C69.5 48 48 69.5 48 96l48 0 48 0 0 48 0 48 0 48-48 0-48 0L0 240l0-48 0-24 0-24L0 96zm48 48l0 24 0 24 48 0 0-48-48 0zM176 96c0-53 43-96 96-96l8 0 24 0 0 48-24 0-8 0c-26.5 0-48 21.5-48 48l48 0 48 0 0 48 0 48 0 48-48 0-48 0-48 0 0-48 0-24 0-24 0-48zm48 72l0 24 48 0 0-48-48 0 0 24zM576 416c0 53-43 96-96 96l-8 0-24 0 0-48 24 0 8 0c26.5 0 48-21.5 48-48l-48 0-48 0 0-48 0-48 0-48 48 0 48 0 48 0 0 48 0 24 0 24 0 48zm-48-48l0-24 0-24-48 0 0 48 48 0zM400 416c0 53-43 96-96 96l-8 0-24 0 0-48 24 0 8 0c26.5 0 48-21.5 48-48l-48 0-48 0 0-48 0-48 0-48 48 0 48 0 48 0 0 48 0 24 0 24 0 48zm-48-72l0-24-48 0 0 48 48 0 0-24z"/></svg>

<svg xmlns="http://www.w3.org/2000/svg" viewBox="0 0 576 512"><!--! Font Awesome Pro 6.4.0 by @fontawesome - https://fontawesome.com License - https://fontawesome.com/license (Commercial License) Copyright 2023 Fonticons, Inc. --><path d="M0 96C0 43 43 0 96 0h8 24V48H104 96C69.5 48 48 69.5 48 96H96h48v48 48 48H96 48 0V192 168 144 96zm48 48v24 24H96V144H48zM176 96c0-53 43-96 96-96h8 24V48H280h-8c-26.5 0-48 21.5-48 48h48 48v48 48 48H272 224 176V192 168 144 96zm48 72v24h48V144H224v24zM576 416c0 53-43 96-96 96h-8H448V464h24 8c26.5 0 48-21.5 48-48H480 432V368 320 272h48 48 48v48 24 24 48zm-48-48V344 320H480v48h48zM400 416c0 53-43 96-96 96h-8H272V464h24 8c26.5 0 48-21.5 48-48H304 256V368 320 272h48 48 48v48 24 24 48zm-48-72V320H304v48h48V344z"/></svg>
